X: 38929
T: Surprise Visit, The
R: reel
M: 4/4
K: Cmajor
E|:F2 FE FGAd|cAGc Adde|fded cAAB|cAGF ECDE|
F2 FE FGAd|cAGc Adde|f2 ed cAAB|cAGE ED D2:|
|:Adde fded|cAGc AddB|c2 cB cGEG|AcGF ECEG|
Adde f2 ef|cAGc Adde|fded cAAB|cAGE ED D2:|

